modules/zondicons/icons/question.svg

<?xml version="1.0" encoding="UTF-8" standalone="no"?>
<svg width="20px" height="20px" viewBox="0 0 20 20" version="1.1" xmlns="http://www.w3.org/2000/svg" xmlns:xlink="http://www.w3.org/1999/xlink">
    <!-- Generator: Sketch 3.7.2 (28276) - http://www.bohemiancoding.com/sketch -->
    <title>question</title>
    <desc>Created with Sketch.</desc>
    <defs></defs>
    <g id="Page-1" stroke="none" stroke-width="1" fill="none" fill-rule="evenodd">
        <g id="question" fill="#000000">
            <path d="M14,7 C14,7.81404368 13.5749107,8.83930284 12.9961487,9.4180649 L11.4180649,10.9961487 C11.2143227,11.1998909 11,11.7148676 11,12 L11,13 L9,13 L9,12 C9,11.1832235 9.42588582,10.1599006 10.0038513,9.5819351 L11.5819351,8.00385134 C11.7857992,7.79998728 12,7.28336316 12,7 C12,5.8954305 11.1045695,5 10,5 C8.8954305,5 8,5.8954305 8,7 L6,7 C6,4.790861 7.790861,3 10,3 C12.209139,3 14,4.790861 14,7 Z M10,20 C15.5228475,20 20,15.5228475 20,10 C20,4.4771525 15.5228475,0 10,0 C4.4771525,0 0,4.4771525 0,10 C0,15.5228475 4.4771525,20 10,20 Z M9,15 L11,15 L11,17 L9,17 L9,15 Z" id="Combined-Shape"></path>
        </g>
    </g>
</svg>

<svg width="20" height="20" viewBox="0 0 20 20" xmlns="http://www.w3.org/2000/svg"><path d="M14 7c0 .814-.425 1.84-1.004 2.418l-1.578 1.578C11.214 11.2 11 11.715 11 12v1H9v-1c0-.817.426-1.84 1.004-2.418l1.578-1.578C11.786 7.8 12 7.284 12 7a2 2 0 1 0-4 0H6a4 4 0 1 1 8 0zm-4 13c5.523 0 10-4.477 10-10S15.523 0 10 0 0 4.477 0 10s4.477 10 10 10zm-1-5h2v2H9v-2z" fill="#000" fill-rule="evenodd"/></svg>
